dist/img/icons/securityuser.svg

<svg width="21" height="21" viewBox="0 0 21 21" fill="none" xmlns="http://www.w3.org/2000/svg">
<path d="M9.17876 1.95148L4.81251 3.58773C3.80626 3.96398 2.98376 5.15398 2.98376 6.23023V12.7315C2.98376 13.764 3.66626 15.1202 4.49751 15.7415L8.26001 18.5502C9.49376 19.4777 11.5238 19.4777 12.7575 18.5502L16.52 15.7415C17.3513 15.1202 18.0338 13.764 18.0338 12.7315V6.23023C18.0338 5.15398 17.2113 3.96398 16.205 3.58773L11.8388 1.95148C11.095 1.68023 9.90501 1.68023 9.17876 1.95148Z" stroke="#0B0B0B" stroke-width="1.5" stroke-linecap="round" stroke-linejoin="round"/>
<path d="M10.5 9.5551H10.3863C9.56378 9.52885 8.90753 8.84635 8.90753 8.0151C8.90753 7.16635 9.59878 6.4751 10.4475 6.4751C11.2963 6.4751 11.9875 7.16635 11.9875 8.0151C11.9788 8.8551 11.3225 9.52885 10.5 9.5551ZM8.75878 12.0051C7.91878 12.5651 7.91878 13.4838 8.75878 14.0438C9.71253 14.6826 11.2788 14.6826 12.2325 14.0438C13.0725 13.4838 13.0725 12.5651 12.2325 12.0051C11.2875 11.3663 9.72128 11.3663 8.75878 12.0051Z" stroke="#0B0B0B" stroke-width="1.5" stroke-linecap="round" stroke-linejoin="round"/>
</svg>

<svg width="21" height="21" viewBox="0 0 21 21" fill="none" xmlns="http://www.w3.org/2000/svg"><path d="M9.179 1.951L4.813 3.588c-1.007.376-1.83 1.566-1.83 2.642v6.502c0 1.032.683 2.388 1.515 3.01L8.26 18.55c1.234.928 3.264.928 4.498 0l3.762-2.809c.831-.62 1.514-1.977 1.514-3.01v-6.5c0-1.077-.823-2.267-1.829-2.643L11.839 1.95c-.744-.27-1.934-.27-2.66 0z" stroke="#0B0B0B" stroke-width="1.5" stroke-linecap="round" stroke-linejoin="round"/><path d="M10.5 9.555h-.114a1.536 1.536 0 01-1.478-1.54c0-.849.69-1.54 1.54-1.54.848 0 1.54.691 1.54 1.54a1.544 1.544 0 01-1.488 1.54zm-1.741 2.45c-.84.56-.84 1.479 0 2.039.954.639 2.52.639 3.473 0 .84-.56.84-1.479 0-2.039-.944-.639-2.51-.639-3.473 0z" stroke="#0B0B0B" stroke-width="1.5" stroke-linecap="round" stroke-linejoin="round"/></svg>
